ERK
CUT[LUSTIG LUSTIG IHR LIEBEN BRUEDER]
REG[Europa, Mitteleuropa, Deutschland, Wilsnack]
TRD[]
FKT[]
SIG[E1610A]
KEY[E1610A  08  G 3/4]
MEL[-532  1_1_12  3_30
    34  5_5_65  4_4_
    54  3_3_43  2_. //]
BEM[]
MEL_SEM[9 -2 -2 0 0 2 2 0 0 1 2 0 2 -2 -2 0 2 -2 -1 0 1 -1 -2]
MEL_RAW[-532  1112  330
    34  5565  44
    54  3343  2]
NO_REP[-5321230
    345654
    543432]
RTM[xxx  x_x_xx  x_xx
    xx  x_x_xx  x_x_
    xx  x_x_xx  x_.]
SCL_DEG[-5123456]
SCL_SEM[5 2 2 1 2 2]

